X:106
T:Holland Smock- Rough copy
%%VWML:SBG-1-2-774-0
F:http://www.vwml.org/record/SBG/1/2/774
Z:Original Sibelius transcriptions by M. & S. Graebe
M:4/4
I:linebreak $
K:G
V:1 treble nm="P1"
V:1
 G | d d/e/ d A | G (3A/G/F/ G (3d/e/f/ | g g e B/c/ | d (3e/d/^c/ d (3d/e/f/ | g g e/d/ d |$ %6
 A G (3G/A/B/ c | B A B c | d3/2 (3c/4B/4A/4 G2 | d d g a | g B e d/c/ | B G A2 | G2 z2 | %13
T:Holland Smock- Fone
F:http://www.vwml.org/record/SBG/1/2/774
Z:Original Sibelius transcriptions by M. & S. Graebe
L:1/4
M:4/4
I:linebreak $
K:G
V:1 treble nm="P1"
V:2 treble 
V:1
 G | d d/e/ d A | G (3A/G/F/ G (3d/e/f/ | g g e _B/c/ |$ d (3e/d/^c/ d (3d/e/f/ | g g e/d/ d | %6
w: ||||||
 A/A/ G (3G/A/B/ c | B A B c |$ d3/2 (3c/4B/4A/4 G2 | d d g a | (g B) e d/c/ | B G A2 | G4 | %13
w: striking _ her hol- * land smo|she was busy *|rak- * * * ing|she was bu- sy|rak- * ing a _|round the h.|p.|
V:2
 x | x4 | x A x d | x4 |$ x4 | x4 | x4 | x4 |$ x4 | x4 | x4 | x4 | x4 | %13
T:Holland Smock- same simplified
F:http://www.vwml.org/record/SBG/1/2/774
Z:Original Sibelius transcriptions by M. & S. Graebe
M:4/4
I:linebreak $
K:G
V:1 treble nm="P1"
V:1
 G/ | d d/e/ d A | G A G3/2 d/ | g3/2 g/ e _B/c/ | d ^c d3/2 d/ | g g e/d/ [_Bd] |$ %6
w: ||||||
 A"^?b flat" G _B c/ | [Bd] A B c | d A G2 | d d g a | g _B e d/c/ | B G A2 | G4 | %13
w: sh- * * a|bus- y * *||||||





